app/assets/img/ic-money.svg

<svg height="250" viewBox="0 0 250 250" width="250" xmlns="http://www.w3.org/2000/svg"><g fill="none" fill-rule="evenodd"><path d="m123.381407 114.488636c-23.6500562-6.145833-31.255581-12.5-31.255581-22.395833 0-11.3541666 10.522712-19.2708333 28.130023-19.2708333 18.544979 0 25.421206 8.8541667 26.046318 21.875h23.024945c-.729297-17.9166667-11.66875-34.375-33.443472-39.6875v-22.8125h-31.255581v22.5c-20.211943 4.375-36.4648453 17.5-36.4648453 37.6041667 0 24.0624996 19.8993868 36.0416666 48.9670773 43.0208336 26.046318 6.25 31.255581 15.416666 31.255581 25.104166 0 7.1875-5.105078 18.645834-28.130023 18.645834-21.4621656 0-29.9011726-9.583334-31.0472106-21.875h-22.9207596c1.2502232 22.8125 18.3366077 35.625 38.3401802 39.895833v22.604167h31.255581v-22.395834c20.316128-3.854166 36.464845-15.625 36.464845-36.979166 0-29.583334-25.317021-39.6875-48.967078-45.833334z" fill="#000" fill-rule="nonzero"/><path d="m0 0h250v250h-250z"/></g></svg>

<svg xmlns="http://www.w3.org/2000/svg" width="250" height="250" viewBox="0 0 250 250">
  <g fill="none" fill-rule="evenodd">
    <path fill="#000000" fill-rule="nonzero" d="M123.381407,114.488636 C99.7313508,108.342803 92.125826,101.988636 92.125826,92.092803 C92.125826,80.7386364 102.648538,72.8219697 120.255849,72.8219697 C138.800828,72.8219697 145.677055,81.6761364 146.302167,94.6969697 L169.327112,94.6969697 C168.597815,76.780303 157.658362,60.3219697 135.88364,55.0094697 L135.88364,32.1969697 L104.628059,32.1969697 L104.628059,54.6969697 C84.416116,59.0719697 68.1632137,72.1969697 68.1632137,92.3011364 C68.1632137,116.363636 88.0626005,128.342803 117.130291,135.32197 C143.176609,141.57197 148.385872,150.738636 148.385872,160.426136 C148.385872,167.613636 143.280794,179.07197 120.255849,179.07197 C98.7936834,179.07197 90.3546764,169.488636 89.2086384,157.19697 L66.2878788,157.19697 C67.538102,180.00947 84.6244865,192.82197 104.628059,197.092803 L104.628059,219.69697 L135.88364,219.69697 L135.88364,197.301136 C156.199768,193.44697 172.348485,181.676136 172.348485,160.32197 C172.348485,130.738636 147.031464,120.63447 123.381407,114.488636 Z"/>
    <polygon points="0 0 250 0 250 250 0 250"/>
  </g>
</svg>
